X: 1137
T: İdelim Cevlân Kılalım Seyrân
C: ?
O: Turkey
F: http://compmusic.upf.edu/node/140
N: huseyni--ilahi--nimevsat--idelim_cevlan--
N: makam= huseyni
N: form= ilahi
N: usul= nimevsat = 13/8
M: 13/8
L: 1/16
K: C _2/4B ^3/4f  
Q: 1/4=108
%%MIDI tuningsystem comma53
g2fg e2{f}e2 d2e2 {f}edc4d2 e2=f2 g2 | \
w:  İ *  *  de *  *  *  lim  *  *  *  *  cev  | 
=f3/2e/ ded2 e4 fefg efed de{f}ed d4  | 
w:  lân  *  *  *  *  *  *  *  *  *  *  *  *  *  cev *  *  *  *  lân    | 
c2Bc d2{e}d4c2 ded2 e2d2 c2B2 d2 | \
w:  Kı *  *  la *  *  lım  *  *  *  *  sey  | 
B2 c2B2 c4 d2cd c2de e8  | 
w:  rân  *  *  *  *  *  *  *  a *  man    | 
g2fg e2{f}e2 d2e2 {f}edc4d2 e2=f2 g2 | \
w:  Mest_ *  *  o *  *  *  lup  *  *  *  *  hay  | 
=f3/2e/ ded2 e4 fefg efed de{f}ed d4  | 
w:  rân  *  *  *  *  *  *  *  *  *  *  *  *  *  hay *  *  *  *  rân    | 
c2Bc d2{e}d4d8d2 cBe2 dc | B2 c2B2 A4 G2A14  | \
w:  Şeyh_ *  *  e *  *  şi ğin  |  *  *  *  *  *  de    | 
g2fg e2{f}e2 d2e2 {f}edc4d2 e2=f2 g2 | 
w:  İ *  *  de *  *  *  lim  *  *  *  *  cev  | 
=f3/2e/ ded2 e4 fefg efed de{f}ed d4  | \
w:  lân  *  *  *  *  *  *  *  *  *  *  *  *  *  cev *  *  *  *  lân    | 
c2Bc d2{e}d4c2 ded2 e2d2 c2B2 d2 | 
w:  Kı *  *  la *  *  lım  *  *  *  *  sey  | 
B2 c2B2 c4 d2cd c2de e8  | g2fg e2{f}e2 d2e2 {f}edc4d2 e2=f2 g2 | 
w:  rân  *  *  *  *  *  *  *  a *  man    |  Mest_ *  *  o *  *  *  lup  *  *  *  *  hay  | 
=f3/2e/ ded2 e4 fefg efed de{f}ed d4  | \
w:  rân  *  *  *  *  *  *  *  *  *  *  *  *  *  hay *  *  *  *  rân    | 
c2Bc d2{e}d4d8d2 cBe2 dc | 
w:  Şeyh_ *  *  e *  *  şi ğin  | 
B2 c2B2 A4 G2A14  | |


